svg/fluentui-system-icons/ic_fluent_fps_30_20_regular.svg

<svg width="20" height="20" viewBox="0 0 20 20" fill="none" xmlns="http://www.w3.org/2000/svg">
<path d="M12.5 2C11.1193 2 10 3.11929 10 4.5V7.5C10 8.88071 11.1193 10 12.5 10C13.8807 10 15 8.88071 15 7.5V4.5C15 3.11929 13.8807 2 12.5 2ZM12.5 9C11.6716 9 11 8.32843 11 7.5V4.5C11 3.67157 11.6716 3 12.5 3C13.3284 3 14 3.67157 14 4.5V7.5C14 8.32843 13.3284 9 12.5 9ZM3.5 12C3.22386 12 3 12.2239 3 12.5V17.5C3 17.7761 3.22386 18 3.5 18C3.77614 18 4 17.7761 4 17.5V16H5.5C5.77614 16 6 15.7761 6 15.5C6 15.2239 5.77614 15 5.5 15H4V13H6.5C6.77614 13 7 12.7761 7 12.5C7 12.2239 6.77614 12 6.5 12H3.5ZM8.5 12C8.22386 12 8 12.2239 8 12.5V17.5C8 17.7761 8.22386 18 8.5 18C8.77614 18 9 17.7761 9 17.5V16H10C11.1046 16 12 15.1046 12 14C12 12.8954 11.1046 12 10 12H8.5ZM10 15H9V13H10C10.5523 13 11 13.4477 11 14C11 14.5523 10.5523 15 10 15ZM13 13.75C13 12.7835 13.7835 12 14.75 12H15.5143C16.3348 12 17 12.6652 17 13.4857V13.5C17 13.7761 16.7761 14 16.5 14C16.2239 14 16 13.7761 16 13.5V13.4857C16 13.2175 15.7825 13 15.5143 13H14.75C14.3358 13 14 13.3358 14 13.75C14 14.1642 14.3358 14.5 14.75 14.5H15.25C16.2165 14.5 17 15.2835 17 16.25C17 17.2165 16.2165 18 15.25 18H14.4857C13.6652 18 13 17.3348 13 16.5143V16.5C13 16.2239 13.2239 16 13.5 16C13.7761 16 14 16.2239 14 16.5V16.5143C14 16.7825 14.2175 17 14.4857 17H15.25C15.6642 17 16 16.6642 16 16.25C16 15.8358 15.6642 15.5 15.25 15.5H14.75C13.7835 15.5 13 14.7165 13 13.75ZM6.74988 3H6.24988C5.76183 3 5.3391 3.2797 5.13326 3.68755C5.04631 3.85983 4.8862 4 4.69322 4C4.33061 4 4.04303 3.67796 4.18886 3.34597C4.53698 2.55347 5.32879 2 6.24988 2H6.74988C7.99252 2 8.99988 3.00736 8.99988 4.25C8.99988 4.95682 8.67396 5.58751 8.16421 6C8.67396 6.41249 8.99988 7.04318 8.99988 7.75C8.99988 8.99264 7.99252 10 6.74988 10H6.24988C5.32879 10 4.53698 9.44653 4.18886 8.65403C4.04303 8.32204 4.33061 8 4.69322 8C4.8862 8 5.04631 8.14017 5.13326 8.31245C5.3391 8.7203 5.76183 9 6.24988 9H6.74988C7.44023 9 7.99988 8.44036 7.99988 7.75C7.99988 7.05964 7.44023 6.5 6.74988 6.5H6.49994C6.22382 6.49997 5.99994 6.27612 5.99994 6C5.99994 5.72388 6.22376 5.50003 6.49988 5.5H6.74988C7.44023 5.5 7.99988 4.94036 7.99988 4.25C7.99988 3.55964 7.44023 3 6.74988 3Z" fill="#212121"/>
</svg>

<svg xmlns="http://www.w3.org/2000/svg" width="20" height="20"><path d="M12.5 2A2.5 2.5 0 0 0 10 4.5v3a2.5 2.5 0 0 0 5 0v-3A2.5 2.5 0 0 0 12.5 2Zm0 7A1.5 1.5 0 0 1 11 7.5v-3a1.5 1.5 0 0 1 3 0v3A1.5 1.5 0 0 1 12.5 9Zm-9 3a.5.5 0 0 0-.5.5v5a.5.5 0 0 0 1 0V16h1.5a.5.5 0 0 0 0-1H4v-2h2.5a.5.5 0 0 0 0-1h-3Zm5 0a.5.5 0 0 0-.5.5v5a.5.5 0 0 0 1 0V16h1a2 2 0 1 0 0-4H8.5Zm1.5 3H9v-2h1a1 1 0 1 1 0 2Zm3-1.25c0-.966.784-1.75 1.75-1.75h.764c.82 0 1.486.665 1.486 1.486v.014a.5.5 0 0 1-1 0v-.014a.486.486 0 0 0-.486-.486h-.764a.75.75 0 0 0 0 1.5h.5a1.75 1.75 0 1 1 0 3.5h-.764c-.82 0-1.486-.665-1.486-1.486V16.5a.5.5 0 0 1 1 0v.014c0 .268.217.486.486.486h.764a.75.75 0 0 0 0-1.5h-.5A1.75 1.75 0 0 1 13 13.75ZM6.75 3h-.5c-.488 0-.91.28-1.117.688-.087.172-.247.312-.44.312-.362 0-.65-.322-.504-.654A2.25 2.25 0 0 1 6.249 2h.5a2.25 2.25 0 0 1 1.415 4 2.25 2.25 0 0 1-1.414 4h-.5a2.25 2.25 0 0 1-2.061-1.346C4.043 8.322 4.33 8 4.693 8c.193 0 .353.14.44.312A1.25 1.25 0 0 0 6.25 9h.5a1.25 1.25 0 0 0 0-2.5H6.5a.5.5 0 0 1 0-1h.25a1.25 1.25 0 0 0 0-2.5Z"/></svg>
